ix/buildings-2_twotone.svg

<svg viewBox="0 0 24 24" fill="none" xmlns="http://www.w3.org/2000/svg" height="1em" width="1em">
  <path opacity="0.4" d="M6.70001 18H4.15002C2.72002 18 2 17.28 2 15.85V4.15002C2 2.72002 2.72002 2 4.15002 2H8.45001C9.88001 2 10.6 2.72002 10.6 4.15002V6" stroke="#292D32" stroke-width="1.5" stroke-miterlimit="10" stroke-linecap="round" stroke-linejoin="round"/>
  <path d="M17.3702 8.41998V19.58C17.3702 21.19 16.5702 22 14.9602 22H9.12018C7.51018 22 6.7002 21.19 6.7002 19.58V8.41998C6.7002 6.80998 7.51018 6 9.12018 6H14.9602C16.5702 6 17.3702 6.80998 17.3702 8.41998Z" stroke="#292D32" stroke-width="1.5" stroke-miterlimit="10" stroke-linecap="round" stroke-linejoin="round"/>
  <path opacity="0.4" d="M13.4004 6V4.15002C13.4004 2.72002 14.1204 2 15.5504 2H19.8503C21.2803 2 22.0004 2.72002 22.0004 4.15002V15.85C22.0004 17.28 21.2803 18 19.8503 18H17.3704" stroke="#292D32" stroke-width="1.5" stroke-miterlimit="10" stroke-linecap="round" stroke-linejoin="round"/>
  <path opacity="0.4" d="M10 11H14" stroke="#292D32" stroke-width="1.5" stroke-miterlimit="10" stroke-linecap="round" stroke-linejoin="round"/>
  <path opacity="0.4" d="M10 14H14" stroke="#292D32" stroke-width="1.5" stroke-miterlimit="10" stroke-linecap="round" stroke-linejoin="round"/>
  <path d="M12 22V19" stroke="#292D32" stroke-width="1.5" stroke-miterlimit="10" stroke-linecap="round" stroke-linejoin="round"/>
</svg>

<svg viewBox="0 0 24 24" fill="none" xmlns="http://www.w3.org/2000/svg" height="1em" width="1em">
  <path opacity=".4" d="M6.7 18H4.15C2.72 18 2 17.28 2 15.85V4.15C2 2.72 2.72 2 4.15 2h4.3c1.43 0 2.15.72 2.15 2.15V6" stroke="#292D32" stroke-width="1.5" stroke-miterlimit="10" stroke-linecap="round" stroke-linejoin="round"/>
  <path d="M17.37 8.42v11.16c0 1.61-.8 2.42-2.41 2.42H9.12c-1.61 0-2.42-.81-2.42-2.42V8.42C6.7 6.81 7.51 6 9.12 6h5.84c1.61 0 2.41.81 2.41 2.42Z" stroke="#292D32" stroke-width="1.5" stroke-miterlimit="10" stroke-linecap="round" stroke-linejoin="round"/>
  <path opacity=".4" d="M13.4 6V4.15c0-1.43.72-2.15 2.15-2.15h4.3C21.28 2 22 2.72 22 4.15v11.7c0 1.43-.72 2.15-2.15 2.15h-2.48M10 11h4m-4 3h4" stroke="#292D32" stroke-width="1.5" stroke-miterlimit="10" stroke-linecap="round" stroke-linejoin="round"/>
  <path d="M12 22v-3" stroke="#292D32" stroke-width="1.5" stroke-miterlimit="10" stroke-linecap="round" stroke-linejoin="round"/>
</svg>
